X: 1
T: Exile's Jig, The
Z: paul19
S: https://thesession.org/tunes/1327#setting1327
R: slip jig
M: 9/8
L: 1/8
K: Edor
edB B2A G2E|E2e e2d efg|edB B2A G2A|BAB d2B def:|
e2f gfe fed|Bee edB edB|e2f gfe fed|BAB d2B def|
e2f gfe fed|Bee e2d efg|agf gfe fed|BAB d2B def||

